X:1
T:Nunwick Mill
S:Charlton Memorial Tune Book
Z:"Noel" <noelbats@onetel.com> tradtunes 2012-7-15
M:4/4
L:1/4
K:G
 (3d/e/f/|"G"g/d/B/d/ G/d/B/d/|"G"G/d/B/d/  e/d/c/B/|\
"Am"c/B/c/d/ e/d/c/B/|"G"BA "D"A(3d/e/f/|!
|"G"g/d/B/d/  G/d/B/d/|"G"G/d/B/d/ e/d/c/B/|\
|"D7"c/d/e/f/ g/d/e/c/|"G"BG G:||!
|d/c/|"G"B/d/G/d/ B/G/d/B/|"Am"c/e/A/e/ c/A/e/c/|\
|"G"B/d/G/B/ B/G/d/B/|"Am"cA "D7"Ad/c/|!
|"G"B/d/G/d/ B/G/d/B/|"Am"c/e/A/e/ c/A/e/c/|\
|"D7"B/c/d/f/ g/d/e/c/|"G"BG G:||!
